svg/part/ear_fill.svg

<svg xmlns="http://www.w3.org/2000/svg" width="24" height="24" viewBox="0 0 24 24"><g fill="none"><rect width="24" height="24"/><path fill="#09244B" d="M12,2 C8.13401,2 5,5.13401 5,9 C5,9.39638 5.03305,9.78579 5.09674,10.1655 C5.15429,10.5085 5.28414,10.8431 5.47996,11.1407 C5.79593,11.778 6.26247,12.3477 6.8634,12.8853 C6.91477,12.9312 6.96839,12.978 7.02316,13.0258 C7.47264,13.4181 8,13.8783 8,14.5 L8,14.5534 C8.37999,14.2118 8.77704,13.9063 9.14716,13.6322 C9.3024,13.5173 9.44901,13.4106 9.58844,13.3091 C9.87716,13.099 10.1351,12.9113 10.3753,12.7191 L10.5852,12.5514 C12.0459,11.3846 12.7671,10.8085 13.0299,9.75746 C13.211,9.03303 13.0316,8.6236 12.8393,8.39714 C12.6156,8.13357 12.2756,8 12,8 C11.5354,8 11.1425,8.31774 11.0314,8.74926 C10.8938,9.28411 10.3486,9.6061 9.81375,9.46844 C9.2789,9.33078 8.95691,8.78559 9.09457,8.25074 C9.42755,6.95704 10.6007,6 12,6 C12.829,6 13.739,6.36643 14.3641,7.10286 C15.0207,7.8764 15.289,8.96697 14.9701,10.2425 C14.5361,11.9788 13.2688,12.9804 11.9867,13.9936 C11.866,14.089 11.745,14.1846 11.6247,14.2809 C11.3481,14.5021 11.0291,14.7344 10.7203,14.9592 C10.5895,15.0545 10.4604,15.1484 10.3372,15.2396 C9.90168,15.5621 9.49123,15.8838 9.13347,16.2306 C8.47661,16.8672 8.06659,17.519 8.00742,18.3017 C8.12268,20.6202 9.56134,22 11,22 C13.1562,22 14.833,20.5 14.9977,18.0676 C15.0832,16.8052 15.5276,15.9285 16.0992,15.1292 C16.3434,14.7877 16.6082,14.4616 16.8728,14.1355 C17.2982,13.6115 17.7234,13.0876 18.0629,12.5007 C18.6591,11.4701 19,10.2733 19,9 C19,5.13401 15.866,2 12,2 Z"/></g></svg>

<svg xmlns="http://www.w3.org/2000/svg" width="24" height="24"><g fill="none"><path d="M0 0h24v24H0z"/><path fill="#09244B" d="M12 2a7 7 0 0 0-6.903 8.166c.057.342.187.677.383.975.316.637.782 1.207 1.383 1.744l.16.14c.45.393.977.853.977 1.475v.053c.38-.341.777-.647 1.147-.92.155-.116.302-.222.441-.324.29-.21.547-.398.787-.59l.21-.168c1.46-1.166 2.182-1.742 2.445-2.794.181-.724.002-1.133-.19-1.36A1.15 1.15 0 0 0 12 8a1 1 0 0 0-.969.75 1 1 0 1 1-1.936-.5A3 3 0 0 1 12 6c.829 0 1.739.366 2.364 1.103.657.773.925 1.864.606 3.14-.434 1.736-1.701 2.737-2.983 3.75l-.362.288c-.277.221-.596.453-.905.678l-.383.28c-.435.323-.846.645-1.204.992-.656.636-1.066 1.288-1.126 2.07C8.123 20.622 9.561 22 11 22c2.156 0 3.833-1.5 3.998-3.932.085-1.263.53-2.14 1.101-2.939.244-.341.51-.667.774-.993.425-.524.85-1.048 1.19-1.635A7 7 0 0 0 12 2"/></g></svg>
